X:1081
T:Ballydesmond
M:2/4
L:1/8
K:A Dorian
cd/c/ Bc/B/|AB/A/ G3/A/|B/c/d ed|g2-gd|!
ea ge|dB GA/B/|ce dB|A2 A2:|!
ea ag/e/|dg gd|ea ab|g3/f/ gd|!
ea ge|dB GA/B/|ce dB|A2 A2:|!


